X:1
T:Come fenice
T:Antonio Morsolino
T:Source : Primo libro delle canzonette a tre voci---Venetia---R.Amadino---1594. Editor : André Vierendeels (11/08/17).
T:Notes : Original clefs : C1, C1, F4 Editorial accidentals above the staff "Al Clarissi. Sig. Piero Priuli"
T:Come fenice
T:©
T:©
C:Antonio Morsolino
Z:©
%%score [ 1 2 3 ]
L:1/8
Q:1/4=120
M:4/4
K:F
V:1 treble nm="Soprano 1" snm="S 1"
V:2 treble nm="Soprano 2" snm="S 2"
V:3 bass nm="Bass" snm="B"
V:1
 G4 G2 A2 | B2 c2 d2 c2 | B2 A2 G4 | ^F4 G2 A2 | ^F2 G4 F2 |[M:2/4] G4 ::[M:4/4] z2 B2 c2 d2 | %7
w: Co- me fe-|ni- ce che ri-|no- v'al fu-|co, ri- no-|v'al fuo- *|co,|co- si per|
w: Co- me far-|fal- la che s'ab-|bru- gi'al lu-|me, che s'ab-|bru- gi'al lu-|me,|co- si son|
w: L'es- ca s'ab-|bru- gia'e non di-|mo- stra'il fuo-|co, non di-|mo- stra'il fuo-|co,|cos- si son|
w: E di tal|fiam- ma ne ri-|ce- ve'il cuo-|re, ne ri-|ce- ve'il cuo-|re,|dol- cez- za|
 _e2 c2 d4 | c2 d4 B2 | A4 A4 | z FFG A2 A2 | GGGA B2 B2 | z AAB c2 c2 | BBBc d2 cB | %14
w: voi quest' al-|ma che v'a-|do- ra,|mo- r'e ri- na- sce|mil- le vol- te l'ho- ra,|mo- r'e ri- na- sce|mil- le vol- te l'ho- * *|
w: io d'in- tor-|no'al tuo splen-|do- re,|men- tre lo mi- ro|dol- ce- men- te mo- re,|men- tre lo mi- ro|dol- ce- men- te mo- * *|
w: io se ben|ch'a- bru- gi'ogn'|ho- ra,|ar- do di den- tro'e|nol di- mo- stro fo- ra,|ar- do di den- tro'e|nol di- mo- stro fo- * *|
w: si so- a-|v'e si gra-|di- ta,|che man- ca- reb- be|con l'ar- dor la vi- ta,|che man- ca- reb- be|con l'ar- dor la vi- * *|
 A4 !fermata!G4 :| %15
w: * ra.|
w: * re.|
w: * ra.|
w: * ta.|
V:2
 z4 G4 | G2 A2 B2 c2 | d2 c2 B2 B2 | A2 AB c4- | c2 B2 A4 |[M:2/4] G4 ::[M:4/4] z2 G2 A2 B2 | %7
w: Co-|me fe- ni- ce|che ri- no- v'al|fu- co, ri- no-|* v'al fuo-|co,|co- si per|
w: Co-|me far- fal- la|che s'ab- bru- gi'al|lu- me, che s'ab-|bru- gi'al lu-|me,|co- si son|
w: L'es-|ca s'ab- bru- gia'e|non di- mo- stra'il|fuo- co, non di|mo- stra'il fuo-|co,|co- si son|
w: E|di tal fiam- ma|ne ri- ce- ve'il|cuo- re, ne ri-|ce- ve'il cuo-|re,|dol- cez- za|
 c2 A2 B4 | A2 A4 G2 | ^F4 F4 | z DDE F2 F2 | EEEF G2 G2 | z FFG A2 A2 | GGGA B2 AG | %14
w: voi quest' al-|ma che v'a-|do- ra,|mo- r'e ri- na- sce|mil- le vol- te l'ho- ra,|mo- r'e ri- na- sce|mil- le vol- te l'ho- * *|
w: io d'in- tor-|no'al tuo splen-|do- re,|men- tre mo mi- ro|dol- ce- men- te mo- re,|men- tre lo mi- ro|dol- ce- men- te mo- * *|
w: io se ben|ch'ab- bru- gi'ogn'|ho- ra,|ar- do di den- tro'e|nol di- mo- stro fo- ra,|ar- do di den- tro'e|nol di- mo- stro fo- * *|
w: si so- a-|v'e si gra-|di- ta,|che man- ca- reb- be|con l'ar- dor la vi- ta,|che man- ca- reb- be|con l'ar- dor la vi- * *|
 ^F4 !fermata!G4 :| %15
w: * ra.|
w: * re.|
w: * ra.|
w: * ta.|
V:3
 z8 | z4 G,,4 | G,,2 A,,2 B,,2 C,2 | D,2 D,2 C,2 A,,2 | D,8 |[M:2/4] G,,4 :: %6
w: |Co-|me fe- ni- ce|che ri- no- vo'al|fuo-|co,|
w: |Co-|me far- fal- la|che s'ab- bru- gi'al|lu-|me,|
w: |L'es-|ca s'ab- bru gia'e-|nin di- mo- stra'i|fuo-|co,|
w: |E|di tal fiam- ma|ne ri- ce- ve'il|cuo-|re,|
[M:4/4] z2 G,2 F,2 D,2 | C,2 C,2 B,,4 | F,2 F,4 G,2 | D,4 D,4- | D,4 z A,,A,,B,, | %11
w: co- si per|voi quest' al-|ma che v'a-|do- ra,|_ mo- re ri-|
w: co- si son|io d'in- tor-|no'al tuo splen-|do- re,|_ men- tre lo|
w: co- si son|io se ben|ch'ab- bru- gi'ogn'|ho- ra,|_ ar- do di|
w: dol- cez- za|si so- a-|v'e si gra-|di- ta,|_ che man- ca-|
 C,2 C,2 B,,B,,B,,C, | D,2 D,2 z C,C,D, | _E,2 E,2 B,,B,,B,,C, | D,4 !fermata!G,,4 :| %15
w: na- sce mil- le vol- te|l'ho- ra, mo- r'e ri-|na- sce mil- le vol- te|l'ho- ra.|
w: mi- ro dol- ce- men- te|mo- re men- tr'e lo|mi- ro dol- ce- men- te|mo- re.|
w: den- tro'e nol di- mo- stro|fo- ra, ar- do di|den- tro'e nol di- mo- stro|fo- ra.|
w: reb- be con l'ar- dor lla|vi- ta, che man- ca-|reb- be con l'ar- dor la|vi- ta.|

